src/img/ic_weth_40.svg

<svg height="40" viewBox="0 0 40 40" width="40" xmlns="http://www.w3.org/2000/svg"><circle cx="20" cy="20" fill="#ec1c79" r="20"/><path d="m8.526 56.615c6.525 0 6.525-.1 7.632-.425 1.446-.429-4.085-4.256-7.632-4.256s-6.426 1.048-6.426 2.341 2.877 2.34 6.426 2.34z" transform="translate(5.771 -23.901)"/><path d="m22.56 6.311.3.323-.262.354c-8.51 11.512-13.413 16.712-15.498 16.018-1.262-.426-2.532-1.706-3.8-3.564-.446-.654-.866-1.342-1.247-2.026-.254-.456-.469-.872-.581-1.106a2.756 2.756 0 0 1 -.25-.725l-.006-.029c-.02-.1-.027-.135-.042-.191a11.6 11.6 0 0 1 16.862-13.11l.044.028a28.584 28.584 0 0 1 4.48 4.027zm-5.067-3.139a10.541 10.541 0 0 0 -15.293 11.921c.023.087.034.136.058.261v.026a1.728 1.728 0 0 0 .167.473c.1.214.307.609.549 1.046.367.658.769 1.319 1.2 1.945 1.151 1.678 2.288 2.826 3.271 3.156 1.31.44 6.241-4.78 14.034-15.285a26.768 26.768 0 0 0 -3.987-3.543z" transform="translate(6.554 6.499)"/><path d="m19.054 4.734a10.541 10.541 0 0 0 -15.294 11.921c.023.087.034.136.058.261v.026a1.728 1.728 0 0 0 .165.471c.1.214.307.609.549 1.046.367.658.769 1.319 1.2 1.945 1.15 1.679 2.288 2.826 3.268 3.156 1.31.44 6.241-4.78 14.034-15.285a26.768 26.768 0 0 0 -3.983-3.541z" fill="#ec1c79" transform="translate(4.993 4.937)"/><path d="m17.63 29.228a11.6 11.6 0 1 1 11.6-11.6 11.6 11.6 0 0 1 -11.6 11.6zm0-1.064a10.533 10.533 0 1 0 -10.53-10.534 10.533 10.533 0 0 0 10.53 10.534z" transform="translate(3.433 3.381)"/><path d="m19.189 29.723a10.533 10.533 0 1 0 -10.533-10.534 10.533 10.533 0 0 0 10.533 10.534z" fill="#fff" transform="translate(1.874 1.821)"/><path d="m13.155 33.77-1.394-4.2h1.222l.727 2.413.8-2.425h.995l.8 2.425.727-2.413h1.2l-1.394 4.2h-1.002l-.84-2.4-.833 2.4zm5.544-.03v-4.17h3.355v.981h-2.213v.632h2v.912h-2v.661h2.24v.983zm4.993 0v-3.157h-1.254v-1.013h3.662v1.013h-1.255v3.157zm2.913 0v-4.17h1.154v1.561h1.484v-1.561h1.157v4.17h-1.157v-1.584h-1.484v1.584z" transform="translate(.029 -10.602)"/><path d="m2.009 24.84a.6.6 0 0 1 .535-1.065l1.7.851a.6.6 0 1 1 -.535 1.065z" transform="translate(6.021 -7.127)"/><path d="m1.5 31.786a.6.6 0 1 1 .5-1.086l1.7.786a.6.6 0 0 1 -.5 1.081z" transform="translate(6.334 -11.25)"/></svg>

<svg id="ic_weth_40" xmlns="http://www.w3.org/2000/svg" width="40" height="40" viewBox="0 0 40 40">
  <circle id="Ellipse_142" data-name="Ellipse 142" cx="20" cy="20" r="20" fill="#ec1c79"/>
  <g id="Group_197" data-name="Group 197" transform="translate(7.336 7.285)">
    <path id="Oval" d="M8.526,56.615c6.525,0,6.525-.1,7.632-.425,1.446-.429-4.085-4.256-7.632-4.256S2.1,52.982,2.1,54.275,4.977,56.615,8.526,56.615Z" transform="translate(-1.565 -31.186)"/>
    <path id="Oval-2" data-name="Oval" d="M22.56,6.311l.3.323-.262.354C14.088,18.5,9.185,23.7,7.1,23.006,5.838,22.58,4.568,21.3,3.3,19.442c-.446-.654-.866-1.342-1.247-2.026-.254-.456-.469-.872-.581-1.106a2.756,2.756,0,0,1-.25-.725l-.006-.029c-.02-.1-.027-.135-.042-.191A11.6,11.6,0,0,1,18.036,2.255l.044.028a28.584,28.584,0,0,1,4.48,4.027ZM17.493,3.172A10.541,10.541,0,0,0,2.2,15.093c.023.087.034.136.058.261l0,.026a1.728,1.728,0,0,0,.167.473c.1.214.307.609.549,1.046.367.658.769,1.319,1.2,1.945C5.325,20.522,6.462,21.67,7.445,22c1.31.44,6.241-4.78,14.034-15.285a26.768,26.768,0,0,0-3.987-3.543Z" transform="translate(-0.782 -0.786)"/>
    <path id="Path" d="M19.054,4.734A10.541,10.541,0,0,0,3.76,16.655c.023.087.034.136.058.261l0,.026a1.728,1.728,0,0,0,.165.471c.1.214.307.609.549,1.046.367.658.769,1.319,1.2,1.945C6.882,22.083,8.02,23.23,9,23.56c1.31.44,6.241-4.78,14.034-15.285a26.768,26.768,0,0,0-3.983-3.541Z" transform="translate(-2.343 -2.348)" fill="#ec1c79"/>
    <path id="Oval-3" data-name="Oval" d="M17.63,29.228a11.6,11.6,0,1,1,11.6-11.6,11.6,11.6,0,0,1-11.6,11.6Zm0-1.064A10.533,10.533,0,1,0,7.1,17.63,10.533,10.533,0,0,0,17.63,28.164Z" transform="translate(-3.903 -3.904)"/>
    <path id="Path-2" data-name="Path" d="M19.189,29.723A10.533,10.533,0,1,0,8.656,19.189,10.533,10.533,0,0,0,19.189,29.723Z" transform="translate(-5.462 -5.464)" fill="#fff"/>
    <path id="WETH" d="M13.155,33.77l-1.394-4.2h1.222l.727,2.413.8-2.425h.995l.8,2.425.727-2.413h1.2l-1.394,4.2H15.836l-.84-2.4-.833,2.4Zm5.544-.03V29.57h3.355v.981H19.841v.632h2v.912h-2v.661h2.24v.983Zm4.993,0V30.583H22.438V29.57H26.1v1.013H24.845V33.74Zm2.913,0V29.57h1.154v1.561h1.484V29.57H30.4V33.74H29.243V32.156H27.759V33.74Z" transform="translate(-7.307 -17.887)"/>
    <path id="Line" d="M2.009,24.84a.6.6,0,0,1,.535-1.065l1.7.851a.6.6,0,1,1-.535,1.065Z" transform="translate(-1.315 -14.412)"/>
    <path id="Line-2" data-name="Line" d="M1.5,31.786A.6.6,0,1,1,2,30.7l1.7.786a.6.6,0,0,1-.5,1.081Z" transform="translate(-1.002 -18.535)"/>
  </g>
</svg>
